X:1
T: Scottish Reform
T: 8 x 32J 3C (RSCDS Bk 3)
T: a.k.a. The Prince of Wales
P: Scottish Reform
C: from RSCDS book 3
C: arranged by Terry Traub, 10-15-95, updated 2-26-05
M: 6/8
L: 1/8
R: Jig
%
K: D
|: F/G/|"D"A>BA AFA |"G"d2 d dcB |"D"A>BA AGF|"Em"EGF "A"EFG|"D"A>BA AFA|"Bm"d2 d def|"Em"g>fg "A"eag|"D"fdd d2 :|
f/g/|"D"afd def |"G"gba "A"gfe|"D"afd "G"g2 f|"A"ecA A2 A|"D"afd def|"Em"gba gfe|"A"g>fg eag |"D"fdd dfg|
"D"afd def |"G"gba "A"gfe|"D"afd "G"g2 f|"A"ecA ABc|"D"dfd "A"ecA|"G"BdB "D"AFD|"Em"GFG "A"EAG|"D"FDD D2 |]
